Numix-GalliumOS/22/categories/preferences-system-directory.svg

<?xml version="1.0" encoding="UTF-8" standalone="no"?>
<svg
   xmlns:dc="http://purl.org/dc/elements/1.1/"
   xmlns:cc="http://creativecommons.org/ns#"
   xmlns:rdf="http://www.w3.org/1999/02/22-rdf-syntax-ns#"
   xmlns:svg="http://www.w3.org/2000/svg"
   xmlns="http://www.w3.org/2000/svg"
   xmlns:sodipodi="http://sodipodi.sourceforge.net/DTD/sodipodi-0.dtd"
   xmlns:inkscape="http://www.inkscape.org/namespaces/inkscape"
   width="22"
   height="22"
   viewBox="0 0 17.6 17.6"
   id="svg2"
   version="1.1"
   inkscape:version="0.91 r"
   sodipodi:docname="preferences-system-directory.svg">
  <metadata
     id="metadata16">
    <rdf:RDF>
      <cc:Work
         rdf:about="">
        <dc:format>image/svg+xml</dc:format>
        <dc:type
           rdf:resource="http://purl.org/dc/dcmitype/StillImage" />
        <dc:title />
      </cc:Work>
    </rdf:RDF>
  </metadata>
  <defs
     id="defs14" />
  <sodipodi:namedview
     pagecolor="#ffffff"
     bordercolor="#666666"
     borderopacity="1"
     objecttolerance="10"
     gridtolerance="10"
     guidetolerance="10"
     inkscape:pageopacity="0"
     inkscape:pageshadow="2"
     inkscape:window-width="1680"
     inkscape:window-height="1026"
     id="namedview12"
     showgrid="true"
     inkscape:zoom="19.873684"
     inkscape:cx="11.241528"
     inkscape:cy="10.980503"
     inkscape:window-x="0"
     inkscape:window-y="24"
     inkscape:window-maximized="1"
     inkscape:current-layer="svg2">
    <inkscape:grid
       type="xygrid"
       id="grid4147" />
  </sodipodi:namedview>
  <path
     style="fill:#555555"
     inkscape:connector-curvature="0"
     id="path6"
     d="m 15.2,7.507768 0,2.584464 C 15.2,10.261899 15.018495,10.4 14.797534,10.4 l -2.395068,0 C 12.179531,10.4 12,10.261899 12,10.092232 L 12,7.507768 C 12,7.3381015 12.179531,7.2 12.402466,7.2 l 2.395068,0 C 15.018495,7.2 15.2,7.3381015 15.2,7.507768 Z" />
  <path
     style="fill:#555555"
     inkscape:connector-curvature="0"
     id="path8"
     d="m 10.4,7.507768 0,2.584464 C 10.4,10.261899 10.218496,10.4 9.997534,10.4 l -2.395068,0 C 7.379531,10.4 7.2,10.261899 7.2,10.092232 l 0,-2.584464 C 7.2,7.3381015 7.379531,7.2 7.602466,7.2 l 2.395068,0 C 10.218496,7.2 10.4,7.3381015 10.4,7.507768 Z" />
  <path
     style="fill:#555555"
     inkscape:connector-curvature="0"
     id="path10"
     d="m 5.6,7.507768 0,2.584464 C 5.6,10.261899 5.418496,10.4 5.197534,10.4 l -2.395068,0 C 2.5795316,10.4 2.4,10.261899 2.4,10.092232 l 0,-2.584464 C 2.4,7.3381015 2.5795316,7.2 2.802466,7.2 l 2.395068,0 C 5.418496,7.2 5.6,7.3381015 5.6,7.507768 Z" />
</svg>

<svg xmlns="http://www.w3.org/2000/svg" width="22" height="22" viewBox="0 0 17.6 17.6">
 <path d="m 15.2 7.508 0 2.584 c 0 0.17 -0.182 0.308 -0.402 0.308 l -2.395 0 c -0.223 0 -0.402 -0.138 -0.402 -0.308 l 0 -2.584 c 0 -0.17 0.18 -0.308 0.402 -0.308 l 2.395 0 c 0.221 0 0.402 0.138 0.402 0.308" style="fill:#555"/>
 <path d="m 10.4 7.508 0 2.584 c 0 0.17 -0.182 0.308 -0.402 0.308 l -2.395 0 c -0.223 0 -0.402 -0.138 -0.402 -0.308 l 0 -2.584 c 0 -0.17 0.18 -0.308 0.402 -0.308 l 2.395 0 c 0.221 0 0.402 0.138 0.402 0.308" style="fill:#555"/>
 <path d="m 5.6 7.508 0 2.584 c 0 0.17 -0.182 0.308 -0.402 0.308 l -2.395 0 c -0.223 0 -0.402 -0.138 -0.402 -0.308 l 0 -2.584 c 0 -0.17 0.18 -0.308 0.402 -0.308 l 2.395 0 c 0.221 0 0.402 0.138 0.402 0.308" style="fill:#555"/>
</svg>
